X: 25362
T: Maple Leaf, The
R: reel
M: 4/4
K: Edorian
E2 EF GE (3EEE|BGAB AGED|EDEF GFGA|BedB cBAG|
EGFA GE (3EEE|BGAB AGE2|Be (3eee BedA|BdBG AGED||
Beed efge|Beed edBA|Beed efge|aefa gfed|
Be ~e2 efge|Beed efga|~b2 gb aged|eaed cBAG:|

